assets/Dashing away/Flat/dashing_away_flat.svg

<svg width="32" height="32" viewBox="0 0 32 32" fill="none" xmlns="http://www.w3.org/2000/svg">
<path d="M1 16C1 17.1046 1.89543 18 3 18C6.31371 18 9 19.7909 9 22C9 25.866 12.134 29 16 29C16.1659 29 16.1794 28.763 16.0202 28.7161C13.1183 27.862 11 25.1784 11 22C12.6273 19.1305 14.3924 16 14.3924 16C14.3924 16 12.6648 12.9356 11 10C11 6.8216 13.1183 4.13796 16.0202 3.2839C16.1794 3.23705 16.1659 3 16 3C12.134 3 9 6.13401 9 10C9 12.2091 6.31371 14 3 14C1.89543 14 1 14.8954 1 16Z" fill="white"/>
<path d="M17.0202 3.2839C17.1794 3.23705 17.1659 3 17 3C13.134 3 10 6.13401 10 10C10 11.5519 9.15155 12.9387 7.82011 13.8558C8.93775 13.7115 10.0406 13.4593 11.113 13.1018L11.3419 13.0255C11.6039 12.9382 11.887 13.0798 11.9743 13.3418C12.0617 13.6037 11.9201 13.8869 11.6581 13.9742L11.4292 14.0505C9.54284 14.6793 7.56742 14.9999 5.579 14.9999H4.03999C4.02667 15 4.01334 15 4 15H3C2.44772 15 2 15.4477 2 16C2 16.5523 2.44772 17 3 17H3.48945C3.49295 16.9999 3.49647 16.9999 3.5 16.9999H5.579C7.56742 16.9999 9.54284 17.3205 11.4292 17.9493L11.6581 18.0255C11.9201 18.1129 12.0617 18.396 11.9743 18.658C11.887 18.92 11.6039 19.0616 11.3419 18.9742L11.113 18.8979C10.0405 18.5404 8.9375 18.2882 7.81972 18.1439C9.15139 19.061 10 20.4479 10 22C10 25.866 13.134 29 17 29C17.1659 29 17.1794 28.763 17.0202 28.7161C16.1562 22 15.3924 16 15.3924 16C15.3924 16 16.25 8.5 17.0202 3.2839Z" fill="#BEBEBE"/>
<path d="M24 10C24 12.5463 22.6404 14.7751 20.6076 16C22.6404 17.2249 24 19.4537 24 22C24 25.866 20.866 29 17 29C17.1659 29 17.1794 28.763 17.0202 28.7161C14.1183 27.862 12 25.1784 12 22C12 19.8097 13.006 17.8544 14.5811 16.5708C14.5811 16.1875 14.5811 15.793 14.5811 15.4292C13.006 14.1456 12 12.1903 12 10C12 6.8216 14.1183 4.13796 17.0202 3.2839C17.1794 3.23705 17.1659 3 17 3C20.866 3 24 6.13401 24 10Z" fill="#DADADA"/>
<path d="M13 16C13 11.0294 17.0294 7 22 7C26.978 8.54027 29.4482 11.0294 29.4482 16C29.4482 20.9706 27.2784 23.2615 22 25C17.0294 25 13 20.9706 13 16Z" fill="#E6E6E6"/>
<path d="M20.2258 9.08993C20.511 9.03827 20.5639 9.44793 20.3034 9.57507C18.0981 10.6515 16.5556 13.1231 16.5556 15.9999C16.5556 18.8768 18.0981 21.3483 20.3034 22.4248C20.5639 22.5519 20.511 22.9616 20.2258 22.9099C19.7684 22.8271 19.3191 22.6872 18.8889 22.4913C16.6086 21.4528 15 18.9377 15 15.9999C15 13.0621 16.6086 10.547 18.8889 9.50856C19.3191 9.31263 19.7684 9.17278 20.2258 9.08993Z" fill="white"/>
<path d="M24.0278 4C24.5801 4 25.0278 3.55228 25.0278 3C25.0278 2.44772 24.5801 2 24.0278 2C23.4755 2 23.0278 2.44772 23.0278 3C23.0278 3.55228 23.4755 4 24.0278 4Z" fill="#BEBEBE"/>
<path d="M30.0278 5C30.0278 6.10457 29.1323 7 28.0278 7C26.9232 7 26.0278 6.10457 26.0278 5C26.0278 3.89543 26.9232 3 28.0278 3C29.1323 3 30.0278 3.89543 30.0278 5Z" fill="#BEBEBE"/>
<path d="M26.0278 28.5C26.0278 29.3284 25.3562 30 24.5278 30C23.6993 30 23.0278 29.3284 23.0278 28.5C23.0278 27.6716 23.6993 27 24.5278 27C25.3562 27 26.0278 27.6716 26.0278 28.5Z" fill="#BEBEBE"/>
<path d="M21.9691 24.6144C21.7609 24.6812 21.7813 25 22 25C26.9706 25 31 20.9706 31 16C31 11.0294 26.9706 7 22 7C21.7813 7 21.7609 7.31877 21.9691 7.3856C25.4594 8.50568 28 11.9387 28 16C28 20.0613 25.4594 23.4943 21.9691 24.6144Z" fill="#BEBEBE"/>
</svg>

<svg xmlns="http://www.w3.org/2000/svg" width="32" height="32" fill="none"><path fill="#fff" d="M1 16a2 2 0 0 0 2 2c3.314 0 6 1.79 6 4a7 7 0 0 0 7 7c.166 0 .18-.237.02-.284A7.003 7.003 0 0 1 11 22c1.627-2.87 3.392-6 3.392-6S12.665 12.936 11 10a7.003 7.003 0 0 1 5.02-6.716C16.18 3.237 16.166 3 16 3a7 7 0 0 0-7 7c0 2.21-2.686 4-6 4a2 2 0 0 0-2 2Z"/><path fill="#BEBEBE" d="M17.02 3.284C17.18 3.237 17.166 3 17 3a7 7 0 0 0-7 7c0 1.552-.848 2.939-2.18 3.856a17.496 17.496 0 0 0 3.293-.754l.229-.077a.5.5 0 0 1 .316.95l-.229.075a18.5 18.5 0 0 1-5.85.95H3a1 1 0 1 0 0 2h2.579a18.5 18.5 0 0 1 5.85.95l.23.076a.5.5 0 1 1-.317.948l-.229-.076a17.5 17.5 0 0 0-3.293-.754C9.15 19.06 10 20.448 10 22a7 7 0 0 0 7 7c.166 0 .18-.237.02-.284C16.156 22 15.392 16 15.392 16s.858-7.5 1.628-12.716Z"/><path fill="#DADADA" d="M24 10a6.996 6.996 0 0 1-3.392 6A7 7 0 0 1 17 29c.166 0 .18-.237.02-.284a7.003 7.003 0 0 1-2.439-12.145v-1.142a7.003 7.003 0 0 1 2.44-12.145C17.178 3.237 17.165 3 17 3a7 7 0 0 1 7 7Z"/><path fill="#E6E6E6" d="M13 16a9 9 0 0 1 9-9c4.978 1.54 7.448 4.03 7.448 9s-2.17 7.262-7.448 9a9 9 0 0 1-9-9Z"/><path fill="#fff" d="M20.226 9.09c.285-.052.338.358.077.485-2.205 1.077-3.747 3.548-3.747 6.425s1.542 5.348 3.747 6.425c.26.127.208.537-.077.485a5.658 5.658 0 0 1-1.337-.419C16.609 21.453 15 18.938 15 16c0-2.938 1.609-5.453 3.889-6.491a5.66 5.66 0 0 1 1.337-.42Z"/><path fill="#BEBEBE" d="M24.028 4a1 1 0 1 0 0-2 1 1 0 0 0 0 2ZM30.028 5a2 2 0 1 1-4 0 2 2 0 0 1 4 0ZM26.028 28.5a1.5 1.5 0 1 1-3 0 1.5 1.5 0 0 1 3 0ZM21.97 24.614c-.21.067-.189.386.03.386a9 9 0 1 0 0-18c-.219 0-.24.319-.03.386C25.46 8.506 28 11.939 28 16c0 4.061-2.54 7.494-6.03 8.614Z"/></svg>
